X:1
T:The Trip to Sligo
M:6/8
L:1/8
Q:80
C:arr. Kent Hiestand
S:Jig
K:HP
|: G|
{g}A2aecA|
{g}G2gdBG|
{g}A2aecA|  !
cBA{ag}a2{f}g|
agf{a}gfe|
dedBAG|  !
{g}ABcdef|
ecB{AGAG}A2:| |:
d|  !
{g}dAd{g}fad|
cGce{a}ge|
dAd{g}fad|  !
{g}e/2f/2ge{g}fad|
{g}e/2f/2ge{g}fed|
{c}dedBAG|  !
{g}ABcdef|
{g}ecB{AGAG}A2:|

